X:19157
T:Xotina (MQ 076)
T:Un armeru de la vega (MQ 076)
R:Xota
C:Tradicional
S:Msica Tradicional Asturiana, (C) Tello & Tito. Asturies, 2001.
S:http://pagina.de/MusTradAst <telloytito@asturies.org>
N:Cancin tradicional de Uviu, los grupos de danzas la bailan con el nombre de "jotina".
O:Uviu
A:Asturies
Z:Manolo Quirs 076
M:3/8
L:1/8
Q:3/8=76
K:C
G
|c2 d|BcA|B2 G|F2 G|B2 c|ABG|A2 G|E2 G|
c2 d|BcA|B2 G|F2 G|B2 c|ABG|A2 G|E2 G|
GAB|c2 d|BAG|F2 F|FGA|B2 A|GGF|E2 G|
GAB|c2 d|BAG|F2 F|FGA|B2 A|GGF|E2 G|
|: c2 A|B2 G/G/|AAA|B2 G|F2 G|B2 G|A2 F/F/|GGG|A2 F|[1 E2 G :|[2 E3||
